icons/glyphs/glyph-headphones.svg

<?xml version="1.0" encoding="UTF-8" standalone="no"?><svg height="16" viewBox="0 0 4.2333333 4.2333333" width="16" xmlns="http://www.w3.org/2000/svg"><sodipodi:namedview/><metadata><rdf:RDF><cc:Work><dc:format>image/svg+xml</dc:format><dc:type/><dc:title/></cc:Work></rdf:RDF></metadata><path d="m2.1162577-.00000215c-1.0929489-.0000001-1.97802394.88938062-1.97802414 1.98232975v1.4157038a.79385343.79385343 0 0 0 -.00172.025834.44090044.44090044 0 0 0 0 .00431.79385343.79385343 0 0 0  .1067807.4073162.79385343.79385343 0 0 0  .6871846.3969828v.0008611h.14036484c.067292 0 .1214199-.054128.1214199-.12142v-1.3450951c0-.067292-.054128-.1214198-.1214199-.1214198h-.14036714a.79385343.79385343 0 0 0 -.3530648.08353v-.746603c0-.8563166.68252934-1.53970707 1.53884594-1.53970707s1.539707.68339047 1.539707 1.53970707v.746603a.79385343.79385343 0 0 0 -.3530647-.08353h-.1403646c-.067292 0-.12142.054127-.12142.1214198v1.3450908c0 .067292.054128.12142.12142.12142h.1403646v-.0008611a.79385343.79385343 0 0 0  .6871848-.3969828.79385343.79385343 0 0 0  .1059193-.380621.44090044.44090044 0 0 0  .0008611-.031001.79385343.79385343 0 0 0 -.00172-.025834v-1.4157037c-.0000022-1.09294913-.8859383-1.98232985-1.9788875-1.98232975z" fill="#d0d0d0"/></svg>

<?xml version="1.0" encoding="UTF-8" standalone="no"?>
<!-- Created with Inkscape (http://www.inkscape.org/) -->

<svg
   xmlns:dc="http://purl.org/dc/elements/1.1/"
   xmlns:cc="http://creativecommons.org/ns#"
   xmlns:rdf="http://www.w3.org/1999/02/22-rdf-syntax-ns#"
   xmlns:svg="http://www.w3.org/2000/svg"
   xmlns="http://www.w3.org/2000/svg"
   xmlns:sodipodi="http://sodipodi.sourceforge.net/DTD/sodipodi-0.dtd"
   xmlns:inkscape="http://www.inkscape.org/namespaces/inkscape"
   width="16"
   height="16"
   viewBox="0 0 4.2333333 4.2333333"
   version="1.1"
   id="svg8"
   inkscape:version="0.92+devel (0526f3edb8, 2017-07-23, custom)"
   sodipodi:docname="glyph-headphones.svg">
  <defs
     id="defs2" />
  <sodipodi:namedview
     id="base"
     pagecolor="#002466"
     bordercolor="#ffffff"
     borderopacity="0.38039216"
     inkscape:pageopacity="1"
     inkscape:pageshadow="2"
     inkscape:zoom="54.75"
     inkscape:cx="8"
     inkscape:cy="8"
     inkscape:document-units="px"
     inkscape:current-layer="svg8"
     inkscape:document-rotation="0"
     showgrid="false"
     inkscape:showpageshadow="false"
     borderlayer="true"
     inkscape:window-width="1920"
     inkscape:window-height="1051"
     inkscape:window-x="0"
     inkscape:window-y="0"
     inkscape:window-maximized="1"
     units="px"
     inkscape:measure-start="5.50689,6.32234"
     inkscape:measure-end="6.50344,6.32234" />
  <metadata
     id="metadata5">
    <rdf:RDF>
      <cc:Work
         rdf:about="">
        <dc:format>image/svg+xml</dc:format>
        <dc:type
           rdf:resource="http://purl.org/dc/dcmitype/StillImage" />
        <dc:title></dc:title>
      </cc:Work>
    </rdf:RDF>
  </metadata>
  <path
     style="color:#000000;font-style:normal;font-variant:normal;font-weight:normal;font-stretch:normal;font-size:medium;line-height:normal;font-family:sans-serif;font-variant-ligatures:normal;font-variant-position:normal;font-variant-caps:normal;font-variant-numeric:normal;font-variant-alternates:normal;font-variant-east-asian:normal;font-feature-settings:normal;font-variation-settings:normal;text-indent:0;text-align:start;text-decoration:none;text-decoration-line:none;text-decoration-style:solid;text-decoration-color:#000000;letter-spacing:normal;word-spacing:normal;text-transform:none;writing-mode:lr-tb;direction:ltr;text-orientation:mixed;dominant-baseline:auto;baseline-shift:baseline;text-anchor:start;white-space:normal;shape-padding:0;clip-rule:nonzero;display:inline;overflow:visible;visibility:visible;opacity:1;isolation:auto;mix-blend-mode:normal;color-interpolation:sRGB;color-interpolation-filters:linearRGB;solid-color:#000000;solid-opacity:1;vector-effect:none;fill:#d0d0d0;fill-opacity:1;fill-rule:nonzero;stroke:none;stroke-width:0.44090042;stroke-linecap:butt;stroke-linejoin:round;stroke-miterlimit:4;stroke-dasharray:none;stroke-dashoffset:0;stroke-opacity:1;color-rendering:auto;image-rendering:auto;shape-rendering:auto;text-rendering:auto;enable-background:accumulate"
     d="M 2.1162577,-2.15e-6 C 1.0233088,-2.25e-6 0.13823376,0.88937847 0.13823356,1.9823276 v 1.4157038 a 0.79385343,0.79385343 0 0 0 -0.00172,0.025834 0.44090044,0.44090044 0 0 0 0,0.00431 0.79385343,0.79385343 0 0 0 0.1067807,0.4073162 0.79385343,0.79385343 0 0 0 0.6871846,0.3969828 v 8.611e-4 H 1.0708437 c 0.067292,0 0.1214199,-0.054128 0.1214199,-0.12142 V 2.7668204 c 0,-0.067292 -0.054128,-0.1214198 -0.1214199,-0.1214198 H 0.93047656 a 0.79385343,0.79385343 0 0 0 -0.3530648,0.08353 v -0.746603 c 0,-0.8563166 0.68252934,-1.53970707 1.53884594,-1.53970707 0.8563166,0 1.539707,0.68339047 1.539707,1.53970707 v 0.746603 A 0.79385343,0.79385343 0 0 0 3.3029,2.6454006 H 3.1625354 c -0.067292,0 -0.12142,0.054127 -0.12142,0.1214198 v 1.3450908 c 0,0.067292 0.054128,0.12142 0.12142,0.12142 H 3.3029 v -8.611e-4 a 0.79385343,0.79385343 0 0 0 0.6871848,-0.3969828 0.79385343,0.79385343 0 0 0 0.1059193,-0.380621 0.44090044,0.44090044 0 0 0 8.611e-4,-0.031001 0.79385343,0.79385343 0 0 0 -0.00172,-0.025834 V 1.9823276 C 4.095143,0.88937847 3.2092069,-2.25e-6 2.1162577,-2.15e-6 Z"
     id="path818"
     inkscape:label="#"
     inkscape:connector-curvature="0" />
</svg>
